X: 107
T: Parcell of Rogues in the Nation
B: 204 Favourite Country Dances
N: Published by Straight & Skillern, London ca.1775
F: http://imslp.org/wiki/204_Favourite_Country_Dances_(Various) p.54 #107
Z: 2014 John Chambers <jc:trillian.mit.edu>
M: 6/8
L: 1/8
K: G
% - - - - - - - - - - - - - - - - - - - - - - - - -
|:\
d2G BdB | G2B B2g | d2G BdB | A2e e2g |\
d2G BdB | g2b bag | fed ABc | d2  d3 :|
|:\
a2d faf | d2a a2b | agf edc | c3  B2e |\
d2G BdB | e2g gfe | dcB ADF | G2G G3 :|
% - - - - - - - - - - - - - - - - - - - - - - - - -
%%begintext align
%% Set all 4 & change sides, the same back again;
%% cross over 1 Cu. Right & Left at top
%%endtext

%%sep 1 1 500
%%sep 1 1 500
